lg/rubymine.svg

<svg viewBox="0 0 256 256" version="1.1" xmlns="http://www.w3.org/2000/svg" preserveAspectRatio="xMidYMid" height="1em" width="1em">
  <defs>
    <linearGradient x1="55.2713581%" y1="73.8248625%" x2="39.5092184%" y2="35.4035019%" id="a">
      <stop stop-color="#FE2857" offset="0%"/>
      <stop stop-color="#FE3052" offset="6%"/>
      <stop stop-color="#FD533B" offset="33%"/>
      <stop stop-color="#FC6C2A" offset="58%"/>
      <stop stop-color="#FC7B20" offset="81%"/>
      <stop stop-color="#FC801D" offset="100%"/>
    </linearGradient>
    <linearGradient x1="19.0472854%" y1="2.91715286%" x2="50.1410335%" y2="36.3282769%" id="b">
      <stop stop-color="#6B57FF" offset="0%"/>
      <stop stop-color="#FE2857" offset="100%"/>
    </linearGradient>
    <linearGradient x1="9.77490556%" y1="7.99954354%" x2="73.276839%" y2="97.5122675%" id="c">
      <stop stop-color="#6B57FF" offset="0%"/>
      <stop stop-color="#FE2857" offset="30%"/>
      <stop stop-color="#FE2857" offset="63%"/>
      <stop stop-color="#FE3052" offset="64%"/>
      <stop stop-color="#FD533B" offset="70%"/>
      <stop stop-color="#FC6C2A" offset="76%"/>
      <stop stop-color="#FC7B20" offset="81%"/>
      <stop stop-color="#FC801D" offset="85%"/>
    </linearGradient>
  </defs>
  <g>
    <polygon fill="url(#a)" points="212.906667 0 139.653333 26.24 81.92 0 62.9066667 47.8933333 50.6133333 47.8933333 50.6133333 189.28 228.4 190.826667 256 50.0266667"/>
    <polygon fill="url(#b)" points="210.72 91.8666667 93.7333333 22.5333333 210.72 159.653333"/>
    <polygon fill="url(#c)" points="106.56 249.333333 202.24 236.586667 187.386667 208.026667 210.72 208.026667 210.72 159.653333 93.7066667 22.32 0 45.3333333 0.106666667 179.733333 53.9733333 256 106.266667 249.36 106.506667 249.333333"/>
    <polygon fill="#000000" points="50.6666667 48 210.666667 48 210.666667 208 50.6666667 208"/>
    <path d="M70.6133333,177.76 L130.613333,177.76 L130.613333,187.76 L70.6133333,187.76 L70.6133333,177.76 Z M129.893333,67.92 L144.16,67.92 L159.973333,93.36 L175.786667,67.92 L190.053333,67.92 L190.053333,128.053333 L176.906667,128.053333 L176.906667,88.8 L159.973333,114.48 L159.626667,114.48 L142.88,89.0666667 L142.88,128.053333 L129.893333,128.053333 L129.893333,67.92 Z M70.6666667,68 L98.1333333,68 C105.742222,68 111.573333,70.0266667 115.626667,74.08 C119.144024,77.7638962 121.003275,82.7251093 120.773333,87.8133333 L120.773333,88 C120.968362,92.2470667 119.707738,96.4334667 117.2,99.8666667 C114.799226,102.951458 111.571829,105.291091 107.893333,106.613333 L122.586667,127.946667 L107.12,127.946667 L94.6666667,109.52 L83.76,109.52 L83.76,127.973333 L70.6666667,127.973333 L70.6666667,68 Z M97.3333333,97.0933333 C100.009033,97.2118428 102.635872,96.3488741 104.72,94.6666667 C106.476199,93.0974936 107.451752,90.8342094 107.386667,88.48 L107.386667,88.32 C107.588178,85.872776 106.5949,83.4789761 104.72,81.8933333 C102.493089,80.3360099 99.806141,79.575021 97.0933333,79.7333333 L83.8133333,79.7333333 L83.8133333,96.9866667 L97.3333333,97.0933333 Z" fill="#FFFFFF"/>
  </g>
</svg>

<svg viewBox="0 0 256 256" xmlns="http://www.w3.org/2000/svg" preserveAspectRatio="xMidYMid" height="1em" width="1em">
  <defs>
    <linearGradient x1="55.271%" y1="73.825%" x2="39.509%" y2="35.404%" id="a">
      <stop stop-color="#FE2857" offset="0%"/>
      <stop stop-color="#FE3052" offset="6%"/>
      <stop stop-color="#FD533B" offset="33%"/>
      <stop stop-color="#FC6C2A" offset="58%"/>
      <stop stop-color="#FC7B20" offset="81%"/>
      <stop stop-color="#FC801D" offset="100%"/>
    </linearGradient>
    <linearGradient x1="19.047%" y1="2.917%" x2="50.141%" y2="36.328%" id="b">
      <stop stop-color="#6B57FF" offset="0%"/>
      <stop stop-color="#FE2857" offset="100%"/>
    </linearGradient>
    <linearGradient x1="9.775%" y1="8%" x2="73.277%" y2="97.512%" id="c">
      <stop stop-color="#6B57FF" offset="0%"/>
      <stop stop-color="#FE2857" offset="30%"/>
      <stop stop-color="#FE2857" offset="63%"/>
      <stop stop-color="#FE3052" offset="64%"/>
      <stop stop-color="#FD533B" offset="70%"/>
      <stop stop-color="#FC6C2A" offset="76%"/>
      <stop stop-color="#FC7B20" offset="81%"/>
      <stop stop-color="#FC801D" offset="85%"/>
    </linearGradient>
  </defs>
  <path fill="url(#a)" d="m212.907 0-73.254 26.24L81.92 0 62.907 47.893H50.613V189.28l177.787 1.547 27.6-140.8z"/>
  <path fill="url(#b)" d="M210.72 91.867 93.733 22.533l116.987 137.12z"/>
  <path fill="url(#c)" d="m106.56 249.333 95.68-12.746-14.853-28.56h23.333v-48.374L93.707 22.32 0 45.333l.107 134.4L53.973 256l52.294-6.64.24-.027z"/>
  <path d="M50.667 48h160v160h-160z"/>
  <path d="M70.613 177.76h60v10h-60v-10Zm59.28-109.84h14.267l15.813 25.44 15.814-25.44h14.266v60.133h-13.146V88.8l-16.934 25.68h-.346L142.88 89.067v38.986h-12.987V67.92ZM70.667 68h27.466c7.61 0 13.44 2.027 17.494 6.08a18.667 18.667 0 0 1 5.146 13.733V88a18.667 18.667 0 0 1-3.573 11.867 20.64 20.64 0 0 1-9.307 6.746l14.694 21.334H107.12L94.667 109.52H83.76v18.453H70.667V68Zm26.666 29.093a10.987 10.987 0 0 0 7.387-2.426 8 8 0 0 0 2.667-6.187v-.16a7.6 7.6 0 0 0-2.667-6.427 12.08 12.08 0 0 0-7.627-2.16h-13.28v17.254l13.52.106Z" fill="#FFF"/>
</svg>
